X:2
T:La Gima Polka corrected
S:From R Crumb and the Cheap Suit Serenaders
N:Transcribed by Ted Ehrhard and Sam Bartlett
M:2/4
K:D
P:A
"D"AB|A2FF F2de|"D"d2AA A2fg|"D"f2de d2AB|"Em"AGEC A,2GA |
"A"G2EE E2Bc|"Am"B2GG G2ed|"A"cdcA "A7"BcB^G|"D"ABAF D2 AB|
"D"A2FF F2de|"D"d2AA A2fg|"B7"agfe ^d=cBA|"Em"GEGB e2ef|
e2_B=c B2de|"D"d2AB "Bm"A2^GA|"D"BA^GA f2"A7"e2|"D"d2d2 d2:|
K:A
P:B
|:cd|"A"e2e2 a2a2|d2d2 f2f2|"E7"G2G2 d2d2|"A"cdBc A4|
CEAc eagf|^efdB G4|B,DEG Bdgf|"A"ef^de fecA|
e2e2 a2a2|d2d2 f2f2|G2G2 d2d2|"A"cdBc A4|
agfe dcB^A|"Bm"B2F2 d2B2|"D"f2d2 "E7" g2e2|"A"a2a2 a2:|
W:Repeat A part 1 X
K:G
P:C
"G"^cdBG DGBd|"Am"^decA EAc=d|"D7"ed^cd efga|"G"bagf gd^cd|
"G"bgaf gefd|"D7"ecAF DFAc|"D7"afge fde^c|"G"dBGD B,DGB|
"G"^cdBG DGBd|"Am"^decA EAc=d|"D7"ed^cd efga|"G"bagf g2dd|
"C"egc'e c'ec'e|"G"dgbd bdbd|"G"ed^cd bd"A7"ad|"G"g2g2 g4:|
W:Repeat A part 1 X
